dist/img/svg/header-code.svg

<svg width="50" height="50" viewBox="0 0 50 50" fill="none" xmlns="http://www.w3.org/2000/svg">
<path d="M42.5 0H7.5C5.51088 0 3.60322 0.790177 2.1967 2.1967C0.790177 3.60322 0 5.51088 0 7.5V32.5C0 34.4891 0.790177 36.3968 2.1967 37.8033C3.60322 39.2098 5.51088 40 7.5 40H15V45H7.5C6.83696 45 6.20107 45.2634 5.73223 45.7322C5.26339 46.2011 5 46.837 5 47.5C5 48.163 5.26339 48.7989 5.73223 49.2678C6.20107 49.7366 6.83696 50 7.5 50H42.5C43.163 50 43.7989 49.7366 44.2678 49.2678C44.7366 48.7989 45 48.163 45 47.5C45 46.837 44.7366 46.2011 44.2678 45.7322C43.7989 45.2634 43.163 45 42.5 45H35V40H42.5C44.4891 40 46.3968 39.2098 47.8033 37.8033C49.2098 36.3968 50 34.4891 50 32.5V7.5C50 5.51088 49.2098 3.60322 47.8033 2.1967C46.3968 0.790177 44.4891 0 42.5 0ZM30 45H20V40H30V45ZM45 32.5C45 33.163 44.7366 33.7989 44.2678 34.2678C43.7989 34.7366 43.163 35 42.5 35H7.5C6.83696 35 6.20107 34.7366 5.73223 34.2678C5.26339 33.7989 5 33.163 5 32.5V30H45V32.5ZM45 25H5V7.5C5 6.83696 5.26339 6.20107 5.73223 5.73223C6.20107 5.26339 6.83696 5 7.5 5H42.5C43.163 5 43.7989 5.26339 44.2678 5.73223C44.7366 6.20107 45 6.83696 45 7.5V25Z" fill="white"/>
</svg>

<svg width="50" height="50" fill="none" xmlns="http://www.w3.org/2000/svg"><path d="M42.5 0h-35A7.5 7.5 0 000 7.5v25A7.5 7.5 0 007.5 40H15v5H7.5a2.5 2.5 0 000 5h35a2.5 2.5 0 000-5H35v-5h7.5a7.5 7.5 0 007.5-7.5v-25A7.5 7.5 0 0042.5 0zM30 45H20v-5h10v5zm15-12.5a2.5 2.5 0 01-2.5 2.5h-35A2.5 2.5 0 015 32.5V30h40v2.5zm0-7.5H5V7.5A2.5 2.5 0 017.5 5h35A2.5 2.5 0 0145 7.5V25z" fill="#fff"/></svg>
